svgs/sharp-light/camcorder.svg

<svg xmlns="http://www.w3.org/2000/svg" viewBox="0 0 576 512"><!--! Font Awesome Pro 6.6.0 by @fontawesome - https://fontawesome.com License - https://fontawesome.com/license (Commercial License) Copyright 2024 Fonticons, Inc. --><path d="M80 32L64 32l0 16 0 112-32 0L0 160l0 32L0 448l0 32 32 0 320 0 32 0 0-32 0-49.5 0-157 0-49.5 0-32-32 0L96 160l0-96 208 0 16 0 0-32-16 0L80 32zM64 192l32 0 256 0 0 256L32 448l0-256 32 0zM544 466.5L576 480l0-34.7 0-250.5 0-34.7-32 13.5L416 227.7l0 34.7 128-54.2 0 223.4L416 377.6l0 34.7 128 54.2zM64 224l0 32 16 0 224 0 16 0 0-32-16 0L80 224l-16 0z"/></svg>

<svg xmlns="http://www.w3.org/2000/svg" viewBox="0 0 576 512"><!--! Font Awesome Pro 6.4.0 by @fontawesome - https://fontawesome.com License - https://fontawesome.com/license (Commercial License) Copyright 2023 Fonticons, Inc. --><path d="M80 32H64V48 160H32 0v32V448v32H32 352h32V448 398.5v-157V192 160H352 96V64H304h16V32H304 80zM64 192H96 352V448H32V192H64zM544 466.5L576 480V445.3 194.7 160l-32 13.5L416 227.7v34.7l128-54.2V431.7L416 377.6v34.7l128 54.2zM64 224v32H80 304h16V224H304 80 64z"/></svg>
